source/img/work-arrow.svg

<svg width="88" height="85" viewBox="0 0 88 85" fill="none" xmlns="http://www.w3.org/2000/svg">
<path d="M62.7261 57.0725C49.4669 56.9569 36.7916 51.79 27.4582 42.6963C18.1248 33.6026 12.8888 21.3179 12.8896 8.51537C12.8896 7.47108 12.4599 6.46956 11.6951 5.73113C10.9303 4.99271 9.89301 4.57787 8.81143 4.57787C7.72984 4.57787 6.69255 4.99271 5.92776 5.73113C5.16296 6.46956 4.7333 7.47108 4.7333 8.51537C4.71913 23.4128 10.8121 37.7101 21.681 48.284C32.55 58.8578 47.3114 64.8486 62.7406 64.9476L68.1709 61.0154L62.7261 57.0725ZM60.1958 42.1154L81.9458 57.8654C82.4523 58.2321 82.8634 58.7077 83.1465 59.2545C83.4297 59.8012 83.5771 60.4041 83.5771 61.0154C83.5771 61.6266 83.4297 62.2295 83.1465 62.7763C82.8634 63.323 82.4523 63.7986 81.9458 64.1654L60.1958 79.9154C59.3305 80.5419 58.2429 80.811 57.1722 80.6633C56.1015 80.5156 55.1354 79.9633 54.4864 79.1279C53.8375 78.2924 53.5588 77.2423 53.7118 76.2085C53.8648 75.1747 54.4368 74.2419 55.3021 73.6154L72.7021 61.0154L55.3021 48.4154C54.8736 48.1051 54.5127 47.7164 54.2398 47.2715C53.9669 46.8266 53.7875 46.3341 53.7118 45.8222C53.6361 45.3103 53.6655 44.7891 53.7984 44.2882C53.9313 43.7873 54.1651 43.3165 54.4864 42.9029C55.1354 42.0674 56.1015 41.5151 57.1722 41.3674C57.7024 41.2943 58.2423 41.3227 58.761 41.4511C59.2798 41.5794 59.7674 41.8051 60.1958 42.1154V42.1154Z" fill="white"/>
</svg>

<svg width="88" height="85" fill="none" xmlns="http://www.w3.org/2000/svg"><path d="M62.726 57.072c-13.26-.115-25.934-5.282-35.268-14.376-9.333-9.093-14.57-21.378-14.568-34.18a3.87 3.87 0 00-1.195-2.785 4.153 4.153 0 00-2.884-1.153A4.153 4.153 0 005.928 5.73a3.87 3.87 0 00-1.195 2.784c-.014 14.898 6.08 29.195 16.948 39.769 10.869 10.574 25.63 16.565 41.06 16.664l5.43-3.933-5.445-3.943zm-2.53-14.957l21.75 15.75c.506.367.917.843 1.2 1.39a3.826 3.826 0 010 3.521 3.974 3.974 0 01-1.2 1.39l-21.75 15.75a4.188 4.188 0 01-3.024.747 4.108 4.108 0 01-2.686-1.535 3.837 3.837 0 01-.774-2.92 3.914 3.914 0 011.59-2.593l17.4-12.6-17.4-12.6a3.99 3.99 0 01-1.062-1.143 3.806 3.806 0 01-.441-2.983c.132-.502.366-.973.687-1.386a4.107 4.107 0 012.686-1.536 4.218 4.218 0 011.589.084 4.14 4.14 0 011.435.664z" fill="#fff"/></svg>
